Yaru++/mimetypes/48/application-x-desktop.svg

<svg height="48" viewBox="0 0 12.699375 12.699375" width="48" xmlns="http://www.w3.org/2000/svg" xmlns:xlink="http://www.w3.org/1999/xlink"><linearGradient id="a" gradientUnits="userSpaceOnUse" x1="344" x2="344" y1="62" y2="106"><stop offset="0" stop-color="#fff"/><stop offset=".125" stop-color="#fff" stop-opacity=".098039"/><stop offset=".92500001" stop-color="#fff" stop-opacity=".098039"/><stop offset="1" stop-color="#fff" stop-opacity=".498039"/></linearGradient><clipPath id="b"><path d="m335.73108 62c-8.82418 0-9.77365.90635-9.7304 9.74838v12.25162 12.25162c-.0433 8.84203.90622 9.74838 9.7304 9.74838h16.53919c8.82418 0 9.7304-.90625 9.7304-9.74838v-12.25162-12.25162c0-8.84213-.90622-9.74838-9.7304-9.74838z"/></clipPath><linearGradient id="c" gradientTransform="matrix(0 -.02997086 .02997 0 -3.039509 13.625372)" gradientUnits="userSpaceOnUse" x1="459.03448" x2="35.310345" y1="419.23337" y2="207.36522"><stop offset="0" stop-color="#f2f2f2"/><stop offset="1" stop-color="#f9f9f9"/></linearGradient><path d="m4.1621981.39685644c-.5881821 0-1.0513178.0135407-1.4323995.0775109-.3810845.06396887-.6929228.18395548-.9213475.41184073-.2284221.22788553-.3489842.53958343-.4123567.92082873-.0633725.3812456-.0757438.8453924-.07286 1.4349839v3.2399529 3.241503c-.00286.5886854.00955 1.0525974.07286 1.4334334.063373.381246.1839346.692944.4123567.920829.2284247.227885.540263.347873.9213475.411841.3810844.06397.8442174.07751 1.4323995.07751h4.3757443c.5881822 0 1.0510742-.01352 1.4313672-.07751.3802944-.064.6911804-.18439.9187614-.412357.227582-.227967.347432-.539443.411323-.920313.06389-.380868.07751-.844073.07751-1.4334334v-3.241503-3.241503c0-.5893606-.01363-1.0525644-.07751-1.4334338-.063891-.3808691-.183741-.6923443-.411323-.92031202-.227581-.22796754-.538467-.34836079-.9187614-.41235744-.380293-.06399691-.843185-.0775109-1.4313672-.0775109z" opacity=".1"/><path d="m4.1623595.39685644c-2.334616 0-2.5858176.23979331-2.5743749 2.57913196v3.2414149 3.2414149c-.0114559 2.3393388.2397589 2.5791318 2.5743749 2.5791318h4.3757787c2.3346168 0 2.5743748-.239767 2.5743748-2.5791318v-3.2414149-3.2414149c0-2.33936511-.239758-2.57913196-2.5743748-2.57913196z" fill="none" opacity=".2" stroke="#000" stroke-width=".529141"/><path d="m4.1623595.39685644c-2.334616 0-2.5858176.23979331-2.5743749 2.57913196v3.2414149 3.2414149c-.0114559 2.3393388.2397589 2.5791318 2.5743749 2.5791318h4.3757787c2.3346168 0 2.5743748-.239767 2.5743748-2.5791318v-3.2414149-3.2414149c0-2.33936511-.239758-2.57913196-2.5743748-2.57913196z" fill="url(#c)"/><path clip-path="url(#b)" d="m335.73108 62c-8.82418 0-9.77365.90635-9.7304 9.74838v12.25162 12.25162c-.0433 8.84203.90622 9.74838 9.7304 9.74838h16.53919c8.82418 0 9.7304-.90625 9.7304-9.74838v-12.25162-12.25162c0-8.84213-.90622-9.74838-9.7304-9.74838z" fill="none" opacity=".4" stroke="url(#a)" stroke-width="2" transform="matrix(.26457031 0 0 .26457031 -84.662117 -16.006503)"/><path d="m5.8965203 3.0425629c-.081621 0-.1496428.315255-.1895698.7658025a2.4945203 2.4945203 0 0 0 -.6028126.2533424c-.3482235-.29184-.6202358-.4680075-.6781088-.4101375l-.64179.64179c-.057871.057825.1182967.3298875.4101435.6781127a2.4945203 2.4945203 0 0 0 -.251136.6028051c-.4518097.039825-.768021.1078198-.768021.1895773v.907095c0 .081592.315258.1496477.765807.1895701a2.4945203 2.4945203 0 0 0 .2524635.6041476c-.2911822.3475951-.467061.6189674-.409257.6767775l.64179.6417823c.05775.057751.3287842-.1177049.6758948-.4083675a2.4945203 2.4945203 0 0 0 .6050266.2493601c.039893.451815.1078095.7680227.1895698.7680227h.9070983c.081621 0 .1496428-.3152554.1895692-.7658028a2.4945203 2.4945203 0 0 0 .6028131-.2533499c.3482238.2918401.6202358.4680148.6781088.4101374l.6417902-.6417823c.05787-.0578251-.1182969-.329895-.4101436-.6781125a2.4945203 2.4945203 0 0 0 .2511353-.6028126c.4518105-.0398251.7680215-.1078126.7680215-.1895701v-.907095c0-.0816-.3152579-.1496475-.7658069-.1895773a2.4945203 2.4945203 0 0 0 -.2524634-.6041327c.2911822-.347595.4670602-.6189825.4092571-.6767851l-.6417902-.64179c-.0577499-.05775-.3287843.1177051-.6758947.4083751a2.4945203 2.4945203 0 0 0 -.6050272-.2493675c-.0398924-.4518076-.1078095-.768015-.1895692-.768015zm.4535483 2.0409676a1.1338728 1.1338728 0 0 1 1.1338736 1.1338724 1.1338728 1.1338728 0 0 1 -1.1338736 1.1338651 1.1338728 1.1338728 0 0 1 -1.1338716-1.1338651 1.1338728 1.1338728 0 0 1 1.1338716-1.1338724z" fill="#999" stroke-width=".239988"/><g fill="#fff"><path d="m1.5878047 6.2174033v3.241503c-.011456 2.3393377.2397774 2.5790437 2.5743934 2.5790437h4.3757443c2.3346166 0 2.5743926-.239679 2.5743926-2.5790437v-3.241503z" opacity=".2"/><path d="m6.3500703.39685644v11.64109356h2.1878721c2.3346166 0 2.5743926-.239679 2.5743926-2.5790437v-3.241503-3.241503c0-2.33936511-.239776-2.57904386-2.5743926-2.57904386z" opacity=".1"/></g></svg>

<?xml version="1.0" encoding="UTF-8" standalone="no"?>
<svg
   xmlns:dc="http://purl.org/dc/elements/1.1/"
   xmlns:cc="http://creativecommons.org/ns#"
   xmlns:rdf="http://www.w3.org/1999/02/22-rdf-syntax-ns#"
   xmlns:svg="http://www.w3.org/2000/svg"
   xmlns="http://www.w3.org/2000/svg"
   xmlns:xlink="http://www.w3.org/1999/xlink"
   xmlns:sodipodi="http://sodipodi.sourceforge.net/DTD/sodipodi-0.dtd"
   xmlns:inkscape="http://www.inkscape.org/namespaces/inkscape"
   width="48"
   height="48"
   version="1.1"
   viewBox="0 0 12.699375 12.699375"
   id="svg49"
   sodipodi:docname="application-x-desktop.svg"
   inkscape:version="0.92.4 (5da689c313, 2019-01-14)">
  <metadata
     id="metadata53">
    <rdf:RDF>
      <cc:Work
         rdf:about="">
        <dc:format>image/svg+xml</dc:format>
        <dc:type
           rdf:resource="http://purl.org/dc/dcmitype/StillImage" />
        <dc:title></dc:title>
      </cc:Work>
    </rdf:RDF>
  </metadata>
  <sodipodi:namedview
     pagecolor="#ffffff"
     bordercolor="#666666"
     borderopacity="1"
     objecttolerance="10"
     gridtolerance="10"
     guidetolerance="10"
     inkscape:pageopacity="0"
     inkscape:pageshadow="2"
     inkscape:window-width="1420"
     inkscape:window-height="960"
     id="namedview51"
     showgrid="false"
     inkscape:zoom="16.3125"
     inkscape:cx="24"
     inkscape:cy="24"
     inkscape:window-x="68"
     inkscape:window-y="264"
     inkscape:window-maximized="0"
     inkscape:current-layer="svg49" />
  <defs
     id="defs17">
    <linearGradient
       id="linearGradient4226"
       x1="529.65503"
       x2="-35.310001"
       y1="401.58401"
       y2="119.093"
       gradientTransform="matrix(0,-0.11988932,0.11988589,0,0.36278005,292.5483)"
       gradientUnits="userSpaceOnUse">
      <stop
         style="stop-color:#f2f2f2"
         offset="0"
         id="stop2" />
      <stop
         style="stop-color:#f9f9f9"
         offset="1"
         id="stop4" />
    </linearGradient>
    <linearGradient
       id="linearGradient4358"
       x1="88"
       x2="488"
       y1="88"
       y2="488"
       gradientUnits="userSpaceOnUse">
      <stop
         style="stop-color:#000000;stop-opacity:.58823532"
         offset="0"
         id="stop7" />
      <stop
         style="stop-color:#000000;stop-opacity:0"
         offset=".88"
         id="stop9" />
      <stop
         style="stop-color:#000000"
         offset="1"
         id="stop11" />
    </linearGradient>
    <filter
       id="filter4346"
       width="1.026"
       height="1.022"
       x="-0.0099999998"
       y="-0.0099999998"
       style="color-interpolation-filters:sRGB">
      <feGaussianBlur
         stdDeviation="2.12"
         id="feGaussianBlur14" />
    </filter>
    <linearGradient
       inkscape:collect="always"
       xlink:href="#linearGradient927"
       id="linearGradient1004"
       x1="344"
       y1="62"
       x2="344"
       y2="106"
       gradientUnits="userSpaceOnUse" />
    <linearGradient
       inkscape:collect="always"
       id="linearGradient927">
      <stop
         style="stop-color:#ffffff;stop-opacity:1;"
         offset="0"
         id="stop923" />
      <stop
         id="stop933"
         offset="0.125"
         style="stop-color:#ffffff;stop-opacity:0.09803922" />
      <stop
         id="stop931"
         offset="0.92500001"
         style="stop-color:#ffffff;stop-opacity:0.09803922" />
      <stop
         style="stop-color:#ffffff;stop-opacity:0.49803922"
         offset="1"
         id="stop925" />
    </linearGradient>
    <clipPath
       clipPathUnits="userSpaceOnUse"
       id="clipPath994">
      <path
         style="color:#000000;display:inline;overflow:visible;visibility:visible;fill:#cdcdcd;fill-opacity:1;fill-rule:nonzero;stroke:none;stroke-width:2;stroke-miterlimit:4;stroke-dasharray:none;stroke-opacity:1;marker:none;enable-background:accumulate"
         d="m 335.73108,62 c -8.82418,0 -9.77365,0.90635 -9.7304,9.74838 V 84 96.25162 c -0.0433,8.84203 0.90622,9.74838 9.7304,9.74838 h 16.53919 c 8.82418,0 9.7304,-0.90625 9.7304,-9.74838 V 84 71.74838 C 362.00067,62.90625 361.09445,62 352.27027,62 Z"
         id="path996"
         inkscape:connector-curvature="0"
         sodipodi:nodetypes="scccssscsss" />
    </clipPath>
    <linearGradient
       inkscape:collect="always"
       xlink:href="#linearGradient4338"
       id="linearGradient1024"
       gradientUnits="userSpaceOnUse"
       gradientTransform="matrix(0,-0.02997086,0.02997,0,-3.0395089,13.625372)"
       x1="459.03448"
       y1="419.23337"
       x2="35.310345"
       y2="207.36522" />
    <linearGradient
       inkscape:collect="always"
       id="linearGradient4338">
      <stop
         style="stop-color:#f2f2f2;stop-opacity:1"
         offset="0"
         id="stop4340" />
      <stop
         style="stop-color:#f9f9f9;stop-opacity:1"
         offset="1"
         id="stop4342" />
    </linearGradient>
  </defs>
  <path
     style="color:#000000;font-style:normal;font-variant:normal;font-weight:normal;font-stretch:normal;font-size:medium;line-height:normal;font-family:sans-serif;font-variant-ligatures:normal;font-variant-position:normal;font-variant-caps:normal;font-variant-numeric:normal;font-variant-alternates:normal;font-feature-settings:normal;text-indent:0;text-align:start;text-decoration:none;text-decoration-line:none;text-decoration-style:solid;text-decoration-color:#000000;letter-spacing:normal;word-spacing:normal;text-transform:none;writing-mode:lr-tb;direction:ltr;text-orientation:mixed;dominant-baseline:auto;baseline-shift:baseline;text-anchor:start;white-space:normal;shape-padding:0;clip-rule:nonzero;display:inline;overflow:visible;visibility:visible;opacity:0.1;isolation:auto;mix-blend-mode:normal;color-interpolation:sRGB;color-interpolation-filters:linearRGB;solid-color:#000000;solid-opacity:1;vector-effect:none;fill:#000000;fill-opacity:1;fill-rule:nonzero;stroke:none;stroke-width:0.52914065;stroke-linecap:butt;stroke-linejoin:miter;stroke-miterlimit:4;stroke-dasharray:none;stroke-dashoffset:0;stroke-opacity:1;marker:none;color-rendering:auto;image-rendering:auto;shape-rendering:auto;text-rendering:auto;enable-background:accumulate"
     d="m 4.1621981,0.39685644 c -0.5881821,0 -1.0513178,0.0135407 -1.4323995,0.0775109 C 2.3487141,0.53833621 2.0368758,0.65832282 1.8084511,0.88620807 1.580029,1.1140936 1.4594669,1.4257915 1.3960944,1.8070368 1.3327219,2.1882824 1.3203506,2.6524292 1.3232344,3.2420207 v 3.2399529 3.241503 c -0.00286,0.5886854 0.00955,1.0525974 0.07286,1.4334334 0.063373,0.381246 0.1839346,0.692944 0.4123567,0.920829 0.2284247,0.227885 0.540263,0.347873 0.9213475,0.411841 0.3810844,0.06397 0.8442174,0.07751 1.4323995,0.07751 h 4.3757443 c 0.5881822,0 1.0510742,-0.01352 1.4313672,-0.07751 0.3802944,-0.064 0.6911804,-0.18439 0.9187614,-0.412357 0.227582,-0.227967 0.347432,-0.539443 0.411323,-0.920313 0.06389,-0.380868 0.07751,-0.844073 0.07751,-1.4334334 v -3.241503 -3.241503 c 0,-0.5893606 -0.01363,-1.0525644 -0.07751,-1.4334338 C 11.235503,1.4261677 11.115653,1.1146925 10.888071,0.88672478 10.66049,0.65875724 10.349604,0.53836399 9.9693096,0.47436734 9.5890166,0.41037043 9.1261246,0.39685644 8.5379424,0.39685644 Z"
     id="path1020"
     inkscape:connector-curvature="0"
     sodipodi:nodetypes="sccsccccccsscccscsccsss" />
  <path
     style="color:#000000;display:inline;overflow:visible;visibility:visible;opacity:0.2;fill:none;fill-opacity:1;fill-rule:nonzero;stroke:#000000;stroke-width:0.52914065;stroke-miterlimit:4;stroke-dasharray:none;stroke-opacity:1;marker:none;enable-background:accumulate"
     d="m 4.1623595,0.39685644 c -2.334616,0 -2.5858176,0.23979331 -2.5743749,2.57913196 V 6.2174033 9.4588182 C 1.5765287,11.798157 1.8277435,12.03795 4.1623595,12.03795 h 4.3757787 c 2.3346168,0 2.5743748,-0.239767 2.5743748,-2.5791318 V 6.2174033 2.9759884 c 0,-2.33936511 -0.239758,-2.57913196 -2.5743748,-2.57913196 z"
     id="path958"
     inkscape:connector-curvature="0"
     sodipodi:nodetypes="scccssscsss" />
  <path
     style="color:#000000;display:inline;overflow:visible;visibility:visible;fill:url(#linearGradient1024);fill-opacity:1;fill-rule:nonzero;stroke:none;stroke-width:0.26457033;marker:none;enable-background:accumulate"
     d="m 4.1623595,0.39685644 c -2.334616,0 -2.5858176,0.23979331 -2.5743749,2.57913196 V 6.2174033 9.4588182 C 1.5765287,11.798157 1.8277435,12.03795 4.1623595,12.03795 h 4.3757787 c 2.3346168,0 2.5743748,-0.239767 2.5743748,-2.5791318 V 6.2174033 2.9759884 c 0,-2.33936511 -0.239758,-2.57913196 -2.5743748,-2.57913196 z"
     id="path964"
     inkscape:connector-curvature="0"
     sodipodi:nodetypes="scccssscsss" />
  <path
     transform="matrix(0.26457031,0,0,0.26457031,-84.662117,-16.006503)"
     sodipodi:nodetypes="scccssscsss"
     inkscape:connector-curvature="0"
     id="path990"
     d="m 335.73108,62 c -8.82418,0 -9.77365,0.90635 -9.7304,9.74838 V 84 96.25162 c -0.0433,8.84203 0.90622,9.74838 9.7304,9.74838 h 16.53919 c 8.82418,0 9.7304,-0.90625 9.7304,-9.74838 V 84 71.74838 C 362.00067,62.90625 361.09445,62 352.27027,62 Z"
     style="color:#000000;display:inline;overflow:visible;visibility:visible;opacity:0.4;fill:none;fill-opacity:1;fill-rule:nonzero;stroke:url(#linearGradient1004);stroke-width:2;stroke-miterlimit:4;stroke-dasharray:none;stroke-opacity:1;marker:none;enable-background:accumulate"
     clip-path="url(#clipPath994)" />
  <path
     d="m 5.8965203,3.0425629 c -0.081621,0 -0.1496428,0.315255 -0.1895698,0.7658025 A 2.4945203,2.4945203 0 0 0 5.1041379,4.0617078 C 4.7559144,3.7698678 4.4839021,3.5937003 4.4260291,3.6515703 l -0.64179,0.64179 c -0.057871,0.057825 0.1182967,0.3298875 0.4101435,0.6781127 a 2.4945203,2.4945203 0 0 0 -0.251136,0.6028051 c -0.4518097,0.039825 -0.768021,0.1078198 -0.768021,0.1895773 v 0.907095 c 0,0.081592 0.315258,0.1496477 0.765807,0.1895701 A 2.4945203,2.4945203 0 0 0 4.1934961,7.4646681 C 3.9023139,7.8122632 3.7264351,8.0836355 3.7842391,8.1414456 l 0.64179,0.6417823 c 0.05775,0.057751 0.3287842,-0.1177049 0.6758948,-0.4083675 a 2.4945203,2.4945203 0 0 0 0.6050266,0.2493601 c 0.039893,0.451815 0.1078095,0.7680227 0.1895698,0.7680227 h 0.9070983 c 0.081621,0 0.1496428,-0.3152554 0.1895692,-0.7658028 A 2.4945203,2.4945203 0 0 0 7.5960009,8.3730905 C 7.9442247,8.6649306 8.2162367,8.8411053 8.2741097,8.7832279 L 8.9158999,8.1414456 C 8.9737699,8.0836205 8.797603,7.8115506 8.5057563,7.4633331 A 2.4945203,2.4945203 0 0 0 8.7568916,6.8605205 C 9.2087021,6.8206954 9.5249131,6.7527079 9.5249131,6.6709504 v -0.907095 c 0,-0.0816 -0.3152579,-0.1496475 -0.7658069,-0.1895773 A 2.4945203,2.4945203 0 0 0 8.5066428,4.9701454 C 8.797825,4.6225504 8.973703,4.3511629 8.9158999,4.2933603 L 8.2741097,3.6515703 C 8.2163598,3.5938203 7.9453254,3.7692754 7.598215,4.0599454 A 2.4945203,2.4945203 0 0 0 6.9931878,3.8105779 C 6.9532954,3.3587703 6.8853783,3.0425629 6.8036186,3.0425629 Z M 6.3500686,5.0835305 A 1.1338728,1.1338728 0 0 1 7.4839422,6.2174029 1.1338728,1.1338728 0 0 1 6.3500686,7.351268 1.1338728,1.1338728 0 0 1 5.216197,6.2174029 1.1338728,1.1338728 0 0 1 6.3500686,5.0835305 Z"
     style="opacity:1;fill:#999999;fill-opacity:1;stroke-width:0.23998807"
     id="path31"
     inkscape:connector-curvature="0" />
  <path
     style="color:#000000;display:inline;overflow:visible;visibility:visible;opacity:0.2;fill:#ffffff;fill-opacity:1;fill-rule:nonzero;stroke:none;stroke-width:0.26457033;marker:none;enable-background:accumulate"
     d="m 1.5878047,6.2174033 v 3.241503 C 1.5763487,11.798244 1.8275821,12.03795 4.1621981,12.03795 h 4.3757443 c 2.3346166,0 2.5743926,-0.239679 2.5743926,-2.5790437 v -3.241503 z"
     id="path1006"
     inkscape:connector-curvature="0" />
  <path
     style="color:#000000;display:inline;overflow:visible;visibility:visible;opacity:0.1;fill:#ffffff;fill-opacity:1;fill-rule:nonzero;stroke:none;stroke-width:0.26457033;marker:none;enable-background:accumulate"
     d="M 6.3500703,0.39685644 V 12.03795 h 2.1878721 c 2.3346166,0 2.5743926,-0.239679 2.5743926,-2.5790437 v -3.241503 -3.241503 c 0,-2.33936511 -0.239776,-2.57904386 -2.5743926,-2.57904386 z"
     id="path1013"
     inkscape:connector-curvature="0" />
</svg>
